public/img/chainex.svg

<svg width="189" height="110" viewBox="0 0 189 110" fill="none" xmlns="http://www.w3.org/2000/svg">
<g clip-path="url(#clip0_2323_68)">
<path d="M114.337 53.2186C114.337 52.4456 114.374 51.6725 114.399 50.9022L114.41 50.7734L114.399 50.6558C113.066 35.3568 99.7806 23.377 84.14 23.377H78.7621C77.3336 24.982 75.4989 26.2228 73.4066 26.9175H84.14C97.89 26.9175 109.564 37.4155 110.794 50.8434C110.752 51.6333 110.724 52.412 110.724 53.2186C110.724 54.0085 110.755 54.79 110.794 55.5855C109.564 69.005 97.89 79.517 84.14 79.517H73.4094C75.5017 80.2229 77.3336 81.4497 78.7649 83.0659H84.1428C99.7806 83.0659 113.068 71.0749 114.402 55.7731L114.413 55.6527L114.402 55.5295C114.374 54.762 114.337 53.9805 114.337 53.2186ZM114.337 53.2186C114.337 52.4456 114.374 51.6725 114.399 50.9022L114.41 50.7734L114.399 50.6558C113.066 35.3568 99.7806 23.377 84.14 23.377H83.182C82.5462 24.6795 81.7339 25.8867 80.7396 26.9175H84.14C97.89 26.9175 109.564 37.4155 110.794 50.8434C110.752 51.6333 110.724 52.412 110.724 53.2186C110.724 54.0085 110.755 54.79 110.794 55.5855C109.564 69.005 97.89 79.517 84.14 79.517H79.5856C80.776 80.5366 81.8264 81.7354 82.647 83.0659H84.1428C99.7806 83.0659 113.068 71.0749 114.402 55.7731L114.413 55.6527L114.402 55.5295C114.377 54.762 114.337 53.9805 114.337 53.2186ZM175.743 79.5142H161.041C147.302 79.5142 135.605 69.0022 134.387 55.5827C134.418 54.7872 134.451 54.0057 134.451 53.2158C134.451 52.4092 134.418 51.6333 134.387 50.849C135.608 37.4127 147.302 26.9147 161.041 26.9147H175.743C182.23 26.9147 187.507 21.7272 187.507 15.3522C187.507 8.97719 182.23 3.78418 175.743 3.78418H161.041C147.605 3.78418 134.975 8.93518 125.454 18.2624C124.466 19.2484 123.497 20.2735 122.581 21.3435C121.667 20.2735 120.698 19.2484 119.712 18.2624C110.206 8.93238 97.5707 3.78418 84.14 3.78418H73.4094C75.5017 4.48442 77.3336 5.72246 78.7649 7.33302H84.1428C96.6295 7.33302 108.338 12.1031 117.158 20.7721C118.581 22.1614 119.92 23.6767 121.163 25.2537L122.586 27.0659L124.02 25.2537C125.25 23.6767 126.617 22.1614 128.02 20.7721C136.849 12.1031 148.565 7.33302 161.046 7.33302H175.749C180.242 7.33302 183.908 10.9351 183.908 15.3522C183.908 19.7778 180.242 23.3742 175.749 23.3742H161.046C145.409 23.3742 132.101 35.354 130.785 50.653L130.765 50.7706L130.785 50.8882C130.81 51.6669 130.838 52.44 130.838 53.2158C130.838 53.9917 130.81 54.762 130.785 55.5239L130.765 55.6471L130.785 55.7675C132.101 71.0693 145.406 83.0603 161.046 83.0603H175.749C180.242 83.0603 183.908 86.6511 183.908 91.0795C183.908 95.5022 180.242 99.0959 175.749 99.0959H161.046C148.565 99.0959 136.849 94.3202 128.02 85.6512C126.617 84.2563 125.253 82.7634 124.02 81.192L122.586 79.3574L121.163 81.192C119.922 82.7634 118.581 84.2563 117.158 85.6512C108.338 94.3202 96.6295 99.0959 84.1428 99.0959H78.7649C77.3364 100.684 75.5017 101.93 73.4094 102.634H84.1428C97.5735 102.634 110.209 97.5049 119.715 88.1665C120.701 87.1805 121.67 86.1497 122.583 85.077C123.499 86.1497 124.468 87.1805 125.457 88.1665C134.978 97.5049 147.607 102.634 161.044 102.634H175.746C182.233 102.634 187.51 97.4545 187.51 91.0795C187.51 84.696 182.23 79.5142 175.743 79.5142ZM84.14 79.517H79.5856C80.776 80.5366 81.8264 81.7354 82.647 83.0659L84.14 83.0631C99.7778 83.0631 113.066 71.0721 114.399 55.7703L114.41 55.6499L114.399 55.5267C114.374 54.7648 114.337 53.9805 114.337 53.2186C114.337 52.4456 114.374 51.6725 114.399 50.9022L114.41 50.7734L114.399 50.6558C113.066 35.3568 99.7806 23.377 84.14 23.377H83.182C82.5462 24.6795 81.7339 25.8867 80.7396 26.9175H84.14C97.89 26.9175 109.564 37.4155 110.794 50.8434C110.752 51.6333 110.724 52.412 110.724 53.2186C110.724 54.0085 110.755 54.79 110.794 55.5855C109.564 69.005 97.89 79.517 84.14 79.517Z" fill="#FF7900"/>
<path d="M114.337 53.2186C114.337 52.4456 114.374 51.6725 114.399 50.9022L114.41 50.7734L114.399 50.6558C113.066 35.3568 99.7806 23.377 84.14 23.377M114.337 53.2186C114.337 53.9805 114.374 54.762 114.402 55.5295M114.337 53.2186C114.337 53.9805 114.377 54.762 114.402 55.5295M114.337 53.2186C114.337 53.9805 114.374 54.7648 114.399 55.5267L114.41 55.6499L114.399 55.7703C113.066 71.0721 99.7778 83.0631 84.14 83.0631L82.647 83.0659M84.14 23.377H78.7621C77.3336 24.982 75.4989 26.2228 73.4066 26.9175H84.14M84.14 23.377H83.182C82.5462 24.6795 81.7339 25.8867 80.7396 26.9175H84.14M84.14 26.9175C97.89 26.9175 109.564 37.4155 110.794 50.8434C110.752 51.6333 110.724 52.412 110.724 53.2186C110.724 54.0085 110.755 54.79 110.794 55.5855C109.564 69.005 97.89 79.517 84.14 79.517M84.14 79.517H73.4094C75.5017 80.2229 77.3336 81.4497 78.7649 83.0659H84.1428M84.14 79.517H79.5856C80.776 80.5366 81.8264 81.7354 82.647 83.0659M84.1428 83.0659C99.7806 83.0659 113.068 71.0749 114.402 55.7731L114.413 55.6527L114.402 55.5295M84.1428 83.0659H82.647M175.743 79.5142H161.041C147.302 79.5142 135.605 69.0022 134.387 55.5827C134.418 54.7872 134.451 54.0057 134.451 53.2158C134.451 52.4092 134.418 51.6333 134.387 50.849C135.608 37.4127 147.302 26.9147 161.041 26.9147H175.743C182.23 26.9147 187.507 21.7272 187.507 15.3522C187.507 8.97719 182.23 3.78418 175.743 3.78418H161.041C147.605 3.78418 134.975 8.93518 125.454 18.2624C124.466 19.2484 123.497 20.2735 122.581 21.3435C121.667 20.2735 120.698 19.2484 119.712 18.2624C110.206 8.93238 97.5707 3.78418 84.14 3.78418H73.4094C75.5017 4.48442 77.3336 5.72246 78.7649 7.33302H84.1428C96.6295 7.33302 108.338 12.1031 117.158 20.7721C118.581 22.1614 119.92 23.6767 121.163 25.2537L122.586 27.0659L124.02 25.2537C125.25 23.6767 126.617 22.1614 128.02 20.7721C136.849 12.1031 148.565 7.33302 161.046 7.33302H175.749C180.242 7.33302 183.908 10.9351 183.908 15.3522C183.908 19.7778 180.242 23.3742 175.749 23.3742H161.046C145.409 23.3742 132.101 35.354 130.785 50.653L130.765 50.7706L130.785 50.8882C130.81 51.6669 130.838 52.44 130.838 53.2158C130.838 53.9917 130.81 54.762 130.785 55.5239L130.765 55.6471L130.785 55.7675C132.101 71.0693 145.406 83.0603 161.046 83.0603H175.749C180.242 83.0603 183.908 86.6511 183.908 91.0795C183.908 95.5022 180.242 99.0959 175.749 99.0959H161.046C148.565 99.0959 136.849 94.3202 128.02 85.6512C126.617 84.2563 125.253 82.7634 124.02 81.192L122.586 79.3574L121.163 81.192C119.922 82.7634 118.581 84.2563 117.158 85.6512C108.338 94.3202 96.6295 99.0959 84.1428 99.0959H78.7649C77.3364 100.684 75.5017 101.93 73.4094 102.634H84.1428C97.5735 102.634 110.209 97.5049 119.715 88.1665C120.701 87.1805 121.67 86.1497 122.583 85.077C123.499 86.1497 124.468 87.1805 125.457 88.1665C134.978 97.5049 147.607 102.634 161.044 102.634H175.746C182.233 102.634 187.51 97.4545 187.51 91.0795C187.51 84.696 182.23 79.5142 175.743 79.5142Z" stroke="#FF7900" stroke-width="3.36117" stroke-miterlimit="10"/>
<path d="M82.6499 83.0627C81.8292 81.7322 80.7788 80.5362 79.5884 79.5138C76.8547 77.1666 73.2554 75.7577 69.3648 75.7577H54.6625C42.0161 75.7577 31.7393 65.6518 31.7393 53.2183C31.7393 40.8099 42.0161 30.7152 54.6625 30.7152H69.3648C74.3786 31.239 78.1711 29.6256 80.7424 26.9171C81.7368 25.8863 82.549 24.6791 83.1849 23.3766C85.5321 18.5029 85.4172 12.1699 82.8319 7.33263C82.1457 6.01617 81.2606 4.81735 80.2214 3.78379C77.6501 1.26851 74.0313 -0.25802 69.3676 0.0360826H54.6653C47.352 0.0360826 40.2571 1.43657 33.588 4.22074C27.1233 6.90128 21.3337 10.733 16.3731 15.6123C11.3986 20.4972 7.50244 26.1804 4.77709 32.5134C1.9397 39.0901 0.5 46.059 0.5 53.2211C0.5 60.4112 1.9397 67.366 4.77149 73.9623C7.49684 80.2897 11.393 85.9673 16.3675 90.855C21.3309 95.7287 27.1177 99.566 33.5824 102.244C40.2515 105.02 47.3464 106.437 54.6597 106.437H69.362C73.289 106.437 76.8771 105 79.6276 102.636C80.8208 101.619 81.8488 100.426 82.6779 99.0983C84.14 96.7595 84.9691 94.0117 84.9691 91.1015C84.9691 88.1521 84.126 85.4071 82.6499 83.0627ZM54.6625 100.224C48.2091 100.224 41.9349 98.9834 36.036 96.527C30.3444 94.1602 25.2186 90.785 20.8295 86.4659C16.4516 82.1496 13.012 77.133 10.5835 71.5254C8.09065 65.7302 6.82181 59.5709 6.82181 53.2211C6.82181 46.888 8.09065 40.7343 10.5835 34.9391C13.012 29.3287 16.4488 24.3206 20.8295 20.0015C25.2186 15.6907 30.3444 12.3044 36.036 9.93754C41.9349 7.47548 48.2091 6.24025 54.6625 6.24025H69.3648C81.3278 6.089 82.3866 24.962 69.3648 24.511H54.6625C38.5345 24.511 25.4175 37.3843 25.4175 53.2183C25.4175 69.0746 38.5345 81.9591 54.6625 81.9591H69.3648C74.4766 81.9591 78.6641 86.0681 78.6641 91.1015C78.6641 96.1292 74.4766 100.224 69.3648 100.224H54.6625Z" fill="#FF7900" stroke="#FF7900" stroke-width="3.36117" stroke-miterlimit="10"/>
</g>
<defs>
<clipPath id="clip0_2323_68">
<rect width="189" height="110" fill="white"/>
</clipPath>
</defs>
</svg>

<svg xmlns="http://www.w3.org/2000/svg" width="189" height="110" fill="none" viewBox="0 0 189 110"><g clip-path="url(#a)"><path fill="#ff7900" d="M114.337 53.219c0-.773.037-1.547.062-2.317l.011-.129-.011-.117c-1.333-15.3-14.618-27.279-30.259-27.279h-5.378a12.4 12.4 0 0 1-5.355 3.54H84.14c13.75 0 25.424 10.499 26.654 23.926a44 44 0 0 0-.07 2.376c0 .79.031 1.571.07 2.367-1.23 13.419-12.904 23.931-26.654 23.931H73.41a12.45 12.45 0 0 1 5.355 3.549h5.378c15.638 0 28.925-11.991 30.259-27.293l.011-.12-.011-.123c-.028-.768-.065-1.55-.065-2.311m0 0c0-.773.037-1.547.062-2.317l.011-.129-.011-.117c-1.333-15.3-14.618-27.279-30.259-27.279h-.958c-.636 1.303-1.448 2.51-2.442 3.54h3.4c13.75 0 25.424 10.499 26.654 23.926a44 44 0 0 0-.07 2.376c0 .79.031 1.571.07 2.367-1.23 13.419-12.904 23.931-26.654 23.931h-4.554a15.3 15.3 0 0 1 3.061 3.549h1.496c15.638 0 28.925-11.991 30.259-27.293l.011-.12-.011-.123c-.025-.768-.065-1.55-.065-2.311m61.406 26.295h-14.702c-13.739 0-25.436-10.512-26.654-23.931.031-.796.064-1.577.064-2.367 0-.807-.033-1.583-.064-2.367 1.221-13.436 12.915-23.934 26.654-23.934h14.702c6.487 0 11.764-5.188 11.764-11.563S182.23 3.784 175.743 3.784h-14.702c-13.436 0-26.066 5.151-35.587 14.478a54 54 0 0 0-2.873 3.081 54 54 0 0 0-2.869-3.08C110.206 8.932 97.571 3.783 84.14 3.783H73.41c2.092.7 3.924 1.938 5.355 3.549h5.378c12.486 0 24.195 4.77 33.015 13.44a46.5 46.5 0 0 1 4.005 4.48l1.423 1.813 1.434-1.812a47 47 0 0 1 4-4.482c8.829-8.669 20.545-13.439 33.026-13.439h14.703c4.493 0 8.159 3.602 8.159 8.02 0 4.425-3.666 8.021-8.159 8.021h-14.703c-15.637 0-28.945 11.98-30.261 27.279l-.02.118.02.117c.025.779.053 1.552.053 2.328s-.028 1.546-.053 2.308l-.02.123.02.12c1.316 15.302 14.621 27.293 30.261 27.293h14.703c4.493 0 8.159 3.591 8.159 8.02 0 4.422-3.666 8.016-8.159 8.016h-14.703c-12.481 0-24.197-4.776-33.026-13.445-1.403-1.395-2.767-2.888-4-4.459l-1.434-1.835-1.423 1.835a47 47 0 0 1-4.005 4.46c-8.82 8.668-20.529 13.444-33.015 13.444h-5.378a12.65 12.65 0 0 1-5.356 3.538h10.734c13.43 0 26.066-5.13 35.572-14.468a53 53 0 0 0 2.868-3.089 53 53 0 0 0 2.874 3.09c9.521 9.338 22.15 14.467 35.587 14.467h14.702c6.487 0 11.764-5.18 11.764-11.555 0-6.383-5.28-11.565-11.767-11.565m-91.603.003h-4.554a15.3 15.3 0 0 1 3.061 3.549l1.493-.003c15.638 0 28.926-11.99 30.259-27.293l.011-.12-.011-.123c-.025-.762-.062-1.547-.062-2.308 0-.773.037-1.547.062-2.317l.011-.129-.011-.117c-1.333-15.3-14.618-27.279-30.259-27.279h-.958c-.636 1.303-1.448 2.51-2.442 3.54h3.4c13.75 0 25.424 10.499 26.654 23.926a44 44 0 0 0-.07 2.376c0 .79.031 1.571.07 2.367-1.23 13.419-12.904 23.931-26.654 23.931"/><path stroke="#ff7900" stroke-miterlimit="10" stroke-width="3.361" d="M114.337 53.219c0-.773.037-1.547.062-2.317l.011-.129-.011-.117c-1.333-15.3-14.618-27.279-30.259-27.279m30.197 29.842c0 .761.037 1.543.065 2.31m-.065-2.31c0 .761.04 1.543.065 2.31m-.065-2.31c0 .761.037 1.546.062 2.308l.011.123-.011.12c-1.333 15.302-14.621 27.293-30.259 27.293l-1.493.003m1.493-59.689h-5.378a12.4 12.4 0 0 1-5.355 3.54H84.14m0-3.54h-.958c-.636 1.303-1.448 2.51-2.442 3.54h3.4m0 0c13.75 0 25.424 10.499 26.654 23.926a44 44 0 0 0-.07 2.376c0 .79.031 1.571.07 2.367-1.23 13.419-12.904 23.931-26.654 23.931m0 0H73.41a12.45 12.45 0 0 1 5.355 3.549h5.378m-.003-3.549h-4.554a15.3 15.3 0 0 1 3.061 3.549m1.496 0c15.638 0 28.925-11.991 30.259-27.293l.011-.12-.011-.123m-30.26 27.536h-1.495m93.096-3.552h-14.702c-13.739 0-25.436-10.512-26.654-23.931.031-.796.064-1.577.064-2.367 0-.807-.033-1.583-.064-2.367 1.221-13.436 12.915-23.934 26.654-23.934h14.702c6.487 0 11.764-5.188 11.764-11.563S182.23 3.784 175.743 3.784h-14.702c-13.436 0-26.066 5.151-35.587 14.478a54 54 0 0 0-2.873 3.081 54 54 0 0 0-2.869-3.08C110.206 8.932 97.571 3.783 84.14 3.783H73.41c2.092.7 3.924 1.938 5.355 3.549h5.378c12.486 0 24.195 4.77 33.015 13.44a46.5 46.5 0 0 1 4.005 4.48l1.423 1.813 1.434-1.812a47 47 0 0 1 4-4.482c8.829-8.669 20.545-13.439 33.026-13.439h14.703c4.493 0 8.159 3.602 8.159 8.02 0 4.425-3.666 8.021-8.159 8.021h-14.703c-15.637 0-28.945 11.98-30.261 27.279l-.02.118.02.117c.025.779.053 1.552.053 2.328s-.028 1.546-.053 2.308l-.02.123.02.12c1.316 15.302 14.621 27.293 30.261 27.293h14.703c4.493 0 8.159 3.591 8.159 8.02 0 4.422-3.666 8.016-8.159 8.016h-14.703c-12.481 0-24.197-4.776-33.026-13.445-1.403-1.395-2.767-2.888-4-4.459l-1.434-1.835-1.423 1.835a47 47 0 0 1-4.005 4.46c-8.82 8.668-20.529 13.444-33.015 13.444h-5.378a12.65 12.65 0 0 1-5.356 3.538h10.734c13.43 0 26.066-5.13 35.572-14.468a53 53 0 0 0 2.868-3.089 53 53 0 0 0 2.874 3.09c9.521 9.338 22.15 14.467 35.587 14.467h14.702c6.487 0 11.764-5.18 11.764-11.555 0-6.383-5.28-11.565-11.767-11.565Z"/><path fill="#ff7900" stroke="#ff7900" stroke-miterlimit="10" stroke-width="3.361" d="M82.65 83.063a15.3 15.3 0 0 0-3.062-3.55 15.68 15.68 0 0 0-10.223-3.755H54.663c-12.647 0-22.924-10.106-22.924-22.54 0-12.408 10.277-22.503 22.924-22.503h14.702c5.014.524 8.806-1.09 11.377-3.798.995-1.03 1.807-2.238 2.443-3.54 2.347-4.874 2.232-11.207-.353-16.044a14.4 14.4 0 0 0-2.61-3.55C77.65 1.27 74.031-.257 69.367.037H54.665c-7.313 0-14.408 1.4-21.077 4.185a53.8 53.8 0 0 0-17.215 11.391C11.4 20.497 7.503 26.18 4.777 32.513A52 52 0 0 0 .5 53.221c0 7.19 1.44 14.145 4.271 20.741 2.726 6.328 6.622 12.005 11.596 16.893a53.9 53.9 0 0 0 17.215 11.389c6.67 2.776 13.764 4.193 21.078 4.193h14.702c3.927 0 7.515-1.437 10.266-3.801a15.3 15.3 0 0 0 3.05-3.538 15.05 15.05 0 0 0 2.291-7.996c0-2.95-.843-5.695-2.32-8.04Zm-27.988 17.161c-6.453 0-12.727-1.24-18.626-3.697-5.692-2.367-10.817-5.742-15.207-10.061a47.2 47.2 0 0 1-10.245-14.94A46.1 46.1 0 0 1 6.822 53.22a46 46 0 0 1 3.762-18.282A47.2 47.2 0 0 1 20.83 20.002 47.8 47.8 0 0 1 36.036 9.938C41.935 7.475 48.209 6.24 54.663 6.24h14.702c11.963-.151 13.022 18.722 0 18.271H54.663c-16.128 0-29.245 12.873-29.245 28.707 0 15.857 13.117 28.741 29.245 28.741h14.702c5.112 0 9.3 4.11 9.3 9.142 0 5.028-4.188 9.123-9.3 9.123z"/></g><defs><clipPath id="a"><path fill="#fff" d="M0 0h189v110H0z"/></clipPath></defs></svg>
